src/assets/image/sunCloseImg.svg

<svg width="100" height="101" viewBox="0 0 100 101" fill="none" xmlns="http://www.w3.org/2000/svg">
<g clip-path="url(#clip0_56_2665)">
<path d="M48.4999 100.18C48.4599 94.3802 48.4265 88.5802 48.3999 82.7802C48.3999 81.4402 48.2099 79.7802 50.0499 79.5802C51.8899 79.3802 52.0499 81.1602 52.0499 82.4802C51.9299 88.3802 52.8299 94.3202 51.4899 100.18H48.4999Z" fill="#FFC400"/>
<path d="M49.3998 73.5201C36.4498 73.5201 26.7098 63.7101 26.7398 50.6601C26.7474 44.7164 29.0983 39.0153 33.2824 34.7937C37.4665 30.5722 43.1464 28.1706 49.0898 28.1101C55.1697 28.1071 61.0051 30.5032 65.3285 34.7779C69.6519 39.0526 72.114 44.8606 72.1798 50.9401C72.1507 56.9544 69.735 62.7111 65.4634 66.9451C61.1919 71.1791 55.4141 73.544 49.3998 73.5201ZM58.5798 57.1401L55.3498 60.2601ZM44.8598 52.9301C43.3998 54.4401 41.8598 55.9301 40.4198 57.4101Z" fill="#FFC400"/>
<path d="M29.5599 72.2501C29.2273 72.8063 28.8458 73.3317 28.4199 73.8201C24.7799 77.4868 21.1133 81.1535 17.4199 84.8201C16.5299 85.7001 15.6099 86.6901 14.2999 85.4801C12.9899 84.2701 13.9199 83.2701 14.7999 82.3801C18.5333 78.6335 22.2766 74.8901 26.0299 71.1501C26.6399 70.5401 27.2799 69.8901 28.2599 70.3201C28.6427 70.4779 28.9704 70.7452 29.2017 71.0886C29.433 71.432 29.5576 71.8361 29.5599 72.2501Z" fill="#FFC400"/>
<path d="M52 10.4501C52 13.0501 52 15.6401 52 18.2301C52 19.3901 51.74 20.5601 50.25 20.5901C48.76 20.6201 48.45 19.5401 48.45 18.3201C48.45 12.9868 48.45 7.6801 48.45 2.4001C48.45 1.1901 48.7999 0.0500952 50.1699 9.52203e-05C51.5399 -0.0499048 51.94 1.1101 52 2.3101C52 5.0001 52 7.7401 52 10.4501Z" fill="#FFC400"/>
<path d="M15.81 13.8901C16.394 14.2835 16.9519 14.7144 17.48 15.1801C21.08 18.7535 24.6633 22.3335 28.23 25.9201C29.09 26.7901 30.23 27.7801 29.04 29.0301C27.85 30.2801 26.59 29.3701 25.58 28.3701C22 24.7901 18.42 21.2201 14.86 17.6201C14.18 16.9301 13.35 16.2201 13.92 15.0701C14.0936 14.7167 14.3625 14.4189 14.6966 14.2103C15.0306 14.0018 15.4162 13.8909 15.81 13.8901Z" fill="#FFC400"/>
<path d="M85.6798 83.82C85.7402 84.1697 85.6999 84.5293 85.5635 84.8569C85.4272 85.1845 85.2004 85.4665 84.9098 85.67C84.6216 85.9064 84.2538 86.0236 83.882 85.9976C83.5101 85.9716 83.1623 85.8043 82.9098 85.53C78.7798 81.45 74.6498 77.36 70.5698 73.23C70.3823 73.0617 70.235 72.8532 70.139 72.6202C70.0429 72.3872 70.0005 72.1356 70.015 71.884C70.0294 71.6324 70.1002 71.3872 70.2222 71.1667C70.3442 70.9462 70.5143 70.7559 70.7198 70.61C70.8725 70.4524 71.0574 70.3295 71.2618 70.2497C71.4662 70.1698 71.6854 70.1349 71.9045 70.1472C72.1236 70.1595 72.3375 70.2189 72.5317 70.3211C72.7258 70.4234 72.8957 70.5663 73.0298 70.74C77.0698 74.74 81.0898 78.7634 85.0898 82.81C85.3349 83.116 85.5337 83.4563 85.6798 83.82Z" fill="#FFC400"/>
<path d="M85.72 15.3701C85.7103 15.8457 85.5906 16.3126 85.3703 16.7342C85.15 17.1558 84.8349 17.5206 84.45 17.8001C80.89 21.3801 77.31 24.9401 73.75 28.5301C72.81 29.4701 71.75 30.2801 70.6 29.1201C69.45 27.9601 70.31 26.8901 71.2 25.9901C74.8466 22.3234 78.5133 18.6567 82.2 14.9901C82.89 14.3001 83.64 13.4701 84.74 14.1701C85.1337 14.5103 85.4653 14.9163 85.72 15.3701Z" fill="#FFC400"/>
<path d="M10.1699 52.0002C7.57989 52.0002 4.99989 52.0002 2.41989 52.0002C1.31989 51.9402 0.0698925 52.0002 -0.000107458 50.4202C-0.0701075 48.8402 1.06989 48.6702 2.23989 48.6602H18.1099C19.2799 48.6602 20.4099 48.8902 20.3399 50.4402C20.2699 51.9902 18.9999 51.9402 17.9099 52.0002C15.3299 52.0002 12.7499 52.0002 10.1699 52.0002Z" fill="#FFC400"/>
<path d="M89.62 51.9402C86.89 51.9402 84.16 51.9402 81.43 51.9402C80.29 51.9402 79.5 51.5102 79.57 50.2002C79.62 49.1102 80.36 48.7002 81.31 48.7002C86.89 48.7002 92.47 48.7002 98.05 48.7002C99.17 48.7002 99.98 49.2002 99.92 50.4802C99.86 51.7602 98.82 51.9402 97.8 52.0002C95.07 52.0002 92.35 52.0002 89.62 52.0002V51.9402Z" fill="#FFC400"/>
<path d="M39.8099 60.5901C39.9348 60.7302 40.0894 60.8405 40.2624 60.9132C40.4354 60.9859 40.6224 61.019 40.8099 61.0101C40.9975 61.0204 41.185 60.988 41.3582 60.9152C41.5315 60.8425 41.6859 60.7313 41.8099 60.5901L49.1599 53.2401L56.5099 60.5901C56.6343 60.7227 56.7845 60.8284 56.9514 60.9006C57.1182 60.9729 57.2981 61.0102 57.4799 61.0102C57.6617 61.0102 57.8416 60.9729 58.0084 60.9006C58.1752 60.8284 58.3255 60.7227 58.4499 60.5901C58.5799 60.4642 58.6833 60.3135 58.7539 60.1468C58.8246 59.9802 58.8609 59.8011 58.8609 59.6201C58.8609 59.4391 58.8246 59.26 58.7539 59.0933C58.6833 58.9267 58.5799 58.776 58.4499 58.6501L50.9999 51.3001L58.3899 44.0001C58.6551 43.7428 58.8073 43.3908 58.8129 43.0213C58.8185 42.6519 58.6771 42.2953 58.4199 42.0301C58.1626 41.7649 57.8105 41.6127 57.4411 41.6071C57.0716 41.6015 56.7151 41.7428 56.4499 42.0001L49.0999 49.3601L41.7499 42.0001C41.4847 41.7428 41.1281 41.6015 40.7587 41.6071C40.3892 41.6127 40.0371 41.7649 39.7799 42.0301C39.5226 42.2953 39.3813 42.6519 39.3869 43.0213C39.3925 43.3908 39.5447 43.7428 39.8099 44.0001L47.1599 51.3501L39.8099 58.7001C39.5625 58.9525 39.424 59.2917 39.424 59.6451C39.424 59.9985 39.5625 60.3377 39.8099 60.5901Z" fill="white"/>
</g>
<defs>
<clipPath id="clip0_56_2665">
<rect width="99.93" height="100.18" fill="white"/>
</clipPath>
</defs>
</svg>

<svg xmlns="http://www.w3.org/2000/svg" viewBox="0 0 99.93 100.18"><defs><style>.cls-1{fill:#f8983c;}.cls-2{fill:#fd912b;}.cls-3{fill:#fff;}</style></defs><g id="Layer_2" data-name="Layer 2"><g id="Layer_1-2" data-name="Layer 1"><path class="cls-1" d="M48.5,100.18q-.06-8.7-.1-17.4c0-1.34-.19-3,1.65-3.2s2,1.58,2,2.9c-.12,5.9.78,11.84-.56,17.7Z"/><path class="cls-2" d="M49.4,73.52c-12.95,0-22.69-9.81-22.66-22.86A22.58,22.58,0,0,1,49.09,28.11,23.08,23.08,0,0,1,72.18,50.94,22.69,22.69,0,0,1,49.4,73.52Zm9.18-16.38-3.23,3.12M44.86,52.93c-1.46,1.51-3,3-4.44,4.48m2.15-9.94"/><path class="cls-1" d="M29.56,72.25a10.9,10.9,0,0,1-1.14,1.57q-5.46,5.5-11,11c-.89.88-1.81,1.87-3.12.66s-.38-2.21.5-3.1q5.6-5.62,11.23-11.23c.61-.61,1.25-1.26,2.23-.83A2.1,2.1,0,0,1,29.56,72.25Z"/><path class="cls-1" d="M52,10.45c0,2.6,0,5.19,0,7.78,0,1.16-.26,2.33-1.75,2.36s-1.8-1.05-1.8-2.27q0-8,0-15.92c0-1.21.35-2.35,1.72-2.4S51.94,1.11,52,2.31C52,5,52,7.74,52,10.45Z"/><path class="cls-1" d="M15.81,13.89a16.26,16.26,0,0,1,1.67,1.29q5.4,5.36,10.75,10.74c.86.87,2,1.86.81,3.11s-2.45.34-3.46-.66C22,24.79,18.42,21.22,14.86,17.62c-.68-.69-1.51-1.4-.94-2.55A2.11,2.11,0,0,1,15.81,13.89Z"/><path class="cls-1" d="M85.68,83.82a1.87,1.87,0,0,1-.77,1.85,1.46,1.46,0,0,1-2-.14c-4.13-4.08-8.26-8.17-12.34-12.3a1.68,1.68,0,0,1,.15-2.62,1.53,1.53,0,0,1,2.31.13q6.06,6,12.06,12.07A4,4,0,0,1,85.68,83.82Z"/><path class="cls-1" d="M85.72,15.37a3.08,3.08,0,0,1-1.27,2.43c-3.56,3.58-7.14,7.14-10.7,10.73-.94.94-2,1.75-3.15.59s-.29-2.23.6-3.13q5.47-5.5,11-11c.69-.69,1.44-1.52,2.54-.82A4.49,4.49,0,0,1,85.72,15.37Z"/><path class="cls-2" d="M10.17,52C7.58,52,5,52,2.42,52,1.32,51.94.07,52,0,50.42s1.07-1.75,2.24-1.76H18.11c1.17,0,2.3.23,2.23,1.78S19,51.94,17.91,52C15.33,52,12.75,52,10.17,52Z"/><path class="cls-2" d="M89.62,51.94c-2.73,0-5.46,0-8.19,0-1.14,0-1.93-.43-1.86-1.74.05-1.09.79-1.5,1.74-1.5q8.37,0,16.74,0c1.12,0,1.93.5,1.87,1.78S98.82,51.94,97.8,52c-2.73,0-5.45,0-8.18,0Z"/><g id="_icons" data-name=" icons"><path class="cls-3" d="M39.81,60.59a1.26,1.26,0,0,0,1,.42,1.24,1.24,0,0,0,1-.42l7.35-7.35,7.35,7.35a1.33,1.33,0,0,0,1.94,0,1.35,1.35,0,0,0,0-1.94L51,51.3,58.39,44A1.37,1.37,0,0,0,56.45,42L49.1,49.36,41.75,42A1.37,1.37,0,0,0,39.81,44l7.35,7.35-7.35,7.35A1.35,1.35,0,0,0,39.81,60.59Z"/></g></g></g></svg>
